X:1
T:Title
%%score { ( 1 3 ) | ( 2 4 ) }
L:1/8
M:3/4
K:Eb
V:1 treble nm="Grand Piano"
V:3 treble 
V:2 bass 
V:4 bass 
V:1
 z2 z2[Q:1/4=100] E2 | GG G2 B2 | cB B2 GA | [DG][DF] [DB]2 D-[DG] |[M:2/4] FE B2 |[M:1/4] E2 | %6
[M:3/4] GG G2 B2 | cB B2 GA | GF c2 cd |[M:5/8] [Ec][DB] [DB]3 |[M:1/4] ef | %11
[M:3/4] [Ae][Ad] [FAd]2 .[DAc]2 | [Ac][GB] [GB]2 GA | [DG][DF] [DB]2 D-[DG] |[M:2/4] FE B2 | %15
[M:1/4] ef |[M:3/4] [Ae][Ad] [FAd]2 .[DAc]2 | [Ac][GB] [GB]2 GA | [DG][DF] [DB]2 D-[DG] | %19
[M:2/4] FE E2 |] %20
V:2
 z2 z2 [E,G,]2 | [E,B,E][E,B,E] [E,B,E]2 [E,G,E]2 | [E,A,E][E,G,E] [E,G,E]2 [E,B,E]2 | %3
 [B,,B,][B,,A,] [B,,F,]2 z B, |[M:2/4] [E,A,E][E,G,] [E,G,E]2 |[M:1/4] [E,G,]2 | %6
[M:3/4] [E,B,E][E,B,E] [E,B,E]2 [E,G,E]2 | [E,A,E][E,G,E] [E,G,E]2 [E,B,E]2 | %8
 [F,=A,E][F,A,E] [F,A,E]2 EF |[M:5/8] [B,,B,][B,,B,] [B,,B,]3 |[M:1/4] [E,B,]2 | %11
[M:3/4] [F,B,][F,B,] B,2 z[K:treble] d | [E,E][E,E] [E,E]2 [E,B,E]2 | %13
 [B,,B,][B,,A,] [B,,F,]2 z B, |[M:2/4] [E,A,E][E,G,] [E,G,E]2 |[M:1/4] [E,B,]2 | %16
[M:3/4] [F,B,][F,B,] B,2 z[K:treble] d | [E,E][E,E] [E,E]2 [E,B,E]2 | %18
 [B,,B,][B,,A,] [B,,F,]2 z B, |[M:2/4] [E,A,B,][E,G,B,] [E,G,B,]2 |] %20
V:3
 x6 | x6 | x6 | z2 z2 .[A,F]2 |[M:2/4] x4 |[M:1/4] x2 |[M:3/4] x6 | x6 | x6 |[M:5/8] x5 | %10
[M:1/4] G2 |[M:3/4] x6 | x6 | z2 z2 .[A,F]2 |[M:2/4] x4 |[M:1/4] G2 |[M:3/4] x6 | x6 | %18
 z2 z2 .[A,F]2 |[M:2/4] x4 |] %20
V:4
 x6 | x6 | x6 | z2 z2 B,,2 |[M:2/4] x4 |[M:1/4] x2 |[M:3/4] x6 | x6 | z2 z2 [F,=A,]2 |[M:5/8] x5 | %10
[M:1/4] x2 |[M:3/4] z2 z2 B,,2[K:treble] | x6 | z2 z2 B,,2 |[M:2/4] x4 |[M:1/4] x2 | %16
[M:3/4] z2 z2 B,,2[K:treble] | x6 | z2 z2 B,,2 |[M:2/4] x4 |] %20

